svgs/regular/sliders-simple.svg

<svg xmlns="http://www.w3.org/2000/svg" viewBox="0 0 512 512"><!--! Font Awesome Pro 6.4.2 by @fontawesome - https://fontawesome.com License - https://fontawesome.com/license (Commercial License) Copyright 2023 Fonticons, Inc. --><path d="M80 336a32 32 0 1 0 0 64 32 32 0 1 0 0-64zm76.3 8L488 344c13.3 0 24 10.7 24 24s-10.7 24-24 24l-331.7 0c-10.2 32.5-40.5 56-76.3 56c-44.2 0-80-35.8-80-80s35.8-80 80-80c35.8 0 66.1 23.5 76.3 56zM400 144a32 32 0 1 0 64 0 32 32 0 1 0 -64 0zm-44.3-24c10.2-32.5 40.5-56 76.3-56c44.2 0 80 35.8 80 80s-35.8 80-80 80c-35.8 0-66.1-23.5-76.3-56L24 168c-13.3 0-24-10.7-24-24s10.7-24 24-24l331.7 0z"/></svg>

<svg xmlns="http://www.w3.org/2000/svg" viewBox="0 0 512 512"><!--! Font Awesome Pro 6.1.1 by @fontawesome - https://fontawesome.com License - https://fontawesome.com/license (Commercial License) Copyright 2022 Fonticons, Inc. --><path d="M488 344C501.3 344 512 354.7 512 368C512 381.3 501.3 392 488 392H156.3C146.1 424.5 115.8 448 80 448C35.82 448 0 412.2 0 368C0 323.8 35.82 288 80 288C115.8 288 146.1 311.5 156.3 344H488zM48 368C48 385.7 62.33 400 80 400C97.67 400 112 385.7 112 368C112 350.3 97.67 336 80 336C62.33 336 48 350.3 48 368zM355.7 120C365.9 87.54 396.2 64 432 64C476.2 64 512 99.82 512 144C512 188.2 476.2 224 432 224C396.2 224 365.9 200.5 355.7 168H24C10.75 168 0 157.3 0 144C0 130.7 10.75 120 24 120H355.7zM432 176C449.7 176 464 161.7 464 144C464 126.3 449.7 112 432 112C414.3 112 400 126.3 400 144C400 161.7 414.3 176 432 176z"/></svg>
